!!!SOCIAL_FUNCTION:	social gatherings
!!!PDT:	1939
!!!OTL: No_91_"How_High_My_Forehead_Is_Getting".krn
!!!LANG: Non-Tone
!!!LING_GROUP: Wakashan
!!!REG: Pacific Northwest
**kern
*staff1
=1-
*clefF4
*k[b-e-]
*M2/4
4r
8r
8B-\
=2
4.c\
8c\
=3
8c\L
[8B-\J
8B-\L]
8B-\J
=4
8B-\L
8F\J
8r
8F\
=5
8B-\L
8B-\J
16B-\
16r
8c\
=6
8c\L
8B-\J
16B-\
16r
8c\
=7
4.c\
8c\
=8
8c\L
8c\J
8A\L
8B-\J
=9
8A\L
[8F\J
8F\L]
8F\J
=10
8E-/L
[8C/J
8C/L]
8C/J
=11
8BB-/L
8FF/J
8r
8C/
=12
8C/L
[8C/J
8C/L]
8C/J
=13
8F/L
8C/J
8E-\L
8E-\J
=14
8C/L
[8C/J
8C/L]
8C/J
=15
8BB-/L
[8BB-/J
8BB-/L]
8C/J
=16
8C/L
[8BB-/J
8BB-/L]
8BB-/J
=17
8BB-/L
8BB-/J
4r
==
*-
